X: 40659
T: Top Of The Maol, The
R: polka
M: 2/4
K: Amixolydian
|:A2 AB/c/|ed Bd|G2 GA|Bd BG|
A2 AB/c/|ed Bd|e/f/g/e/ dB|1 A2 AG:|2 A2 A>d||
|:ea ag/a/|ba g2|ef ga|ge ed|
ea ag/a/|ba g2|e/f/g/e/ dB|1 A2 A>d:|2 A2 AG||

